project/images/official/editable/537.svg

<?xml version="1.0" encoding="UTF-8" standalone="no"?>
<svg
   width="69.55426pt"
   height="35.776272pt"
   viewBox="0 0 69.554261 35.776272"
   version="1.1"
   id="svg3513"
   xmlns="http://www.w3.org/2000/svg"
   xmlns:svg="http://www.w3.org/2000/svg">
  <defs
     id="defs3517" />
  <g
     id="layer2"
     style="display:inline"
     transform="scale(0.74036996,1)" />
  <g
     id="layer1"
     transform="scale(1.1677087,1)">
    <rect
       style="display:inline;fill:#ffffff;stroke:none;stroke-width:0;stroke-linecap:square;stroke-miterlimit:4;stroke-dasharray:none;stroke-opacity:1"
       id="rect3621"
       width="59.564735"
       height="35.776272"
       x="0"
       y="8.8817842e-16" />
    <rect
       style="display:inline;fill:none;stroke:#000000;stroke-width:0.164154;stroke-linecap:square;stroke-miterlimit:4;stroke-dasharray:none;stroke-opacity:1"
       id="rect3621-4"
       width="58.666401"
       height="34.468613"
       x="0.486384"
       y="0.729029" />
  </g>
  <g
     id="surface1"
     transform="matrix(0.94856218,0,0,0.94856218,2.472406,5.1458375)">
    <path
       style="fill:#211e1e;fill-opacity:1;fill-rule:nonzero;stroke:none"
       d="M 3.910156,13.765625 22.339844,10.910156 H 58.03125 l 10.152344,2.539063 v 4.414062 h -1.054688 v 0.683594 l -7.546875,8.785156 c -0.121093,0.136719 -0.308593,0.292969 -0.453125,0.40625 -0.195312,0.160157 -0.410156,0.304688 -0.648437,0.398438 -0.199219,0.07813 -0.4375,0.128906 -0.652344,0.164062 -0.05859,0.0078 -0.316406,0.04297 -0.375,0.04297 H 16.148438 c -0.160157,0 -0.441407,0 -0.597657,0 -0.28125,-0.01563 -0.632812,-0.04297 -0.886719,-0.15625 -0.230468,-0.09375 -0.488281,-0.3125 -0.667968,-0.476562 -0.0078,-0.0078 -0.402344,-0.375 -0.410156,-0.378907 L 5.199219,19.453125 v -0.90625 H 3.910156 v -4.78125"
       id="path5151" />
    <path
       style="fill:#211e1e;fill-opacity:1;fill-rule:nonzero;stroke:none"
       d="M 3.914062,5.074219 V 5.726562 L 31.742188,4.324219 V 2.691406 L 36.84375,0 H 50.164062 L 54.875,2.570312 V 9.992188 H 31.742188 V 7.855469 L 3.914062,8.144531 v 0.777344 h -3.0625 V 5.074219 h 3.0625"
       id="path5153" />
    <path
       style="fill:#ffffff;fill-opacity:1;fill-rule:nonzero;stroke:none"
       d="m 11.765625,24.402344 c 0.09375,-0.300782 0.246094,-0.742188 0.382813,-1.027344 0.316406,-0.636719 0.820312,-1.160156 1.417968,-1.53125 0.625,-0.390625 1.34375,-0.605469 2.078125,-0.621094 0.753907,-0.02344 1.496094,0.171875 2.140625,0.5625 0.59375,0.351563 1.082032,0.847656 1.417969,1.445313 0.160156,0.28125 0.28125,0.574219 0.367187,0.882812 0.02344,0.08203 0.05078,0.210938 0.07422,0.289063 h 2.515625 c 0.02734,-0.101563 0.07031,-0.246094 0.109375,-0.347656 0.08984,-0.292969 0.214844,-0.566407 0.371094,-0.824219 0.355469,-0.582031 0.84375,-1.082031 1.425781,-1.425781 0.660156,-0.378907 1.410156,-0.566407 2.171875,-0.546876 0.707031,0.02344 1.386719,0.222657 1.984375,0.585938 0.621094,0.371094 1.128906,0.90625 1.476563,1.539062 0.136719,0.226563 0.234375,0.472657 0.324219,0.730469 0.02734,0.08594 0.0625,0.210938 0.08594,0.289063 h 1.632813 c 0.02734,-0.07031 0.0625,-0.171875 0.08594,-0.253906 0.105469,-0.300782 0.242187,-0.617188 0.402344,-0.890626 0.378906,-0.625 0.949219,-1.128906 1.589843,-1.488281 0.648438,-0.359375 1.378907,-0.574219 2.128907,-0.574219 0.761719,0 1.511719,0.214844 2.179687,0.597657 0.609375,0.34375 1.164063,0.839843 1.511719,1.457031 0.105469,0.1875 0.277344,0.632812 0.363281,0.835938 0.03516,0.08594 0.09375,0.230468 0.132813,0.316406 h 2.695312 c 0.02734,-0.09375 0.06641,-0.238282 0.09375,-0.332032 0.09375,-0.289062 0.207031,-0.558593 0.351563,-0.820312 0.355468,-0.625 0.855468,-1.164062 1.484375,-1.523438 0.609375,-0.34375 1.320312,-0.496093 2.019531,-0.488281 0.734375,0.0039 1.464844,0.171875 2.09375,0.554688 0.601562,0.355469 1.085938,0.890625 1.429688,1.507812 0.128906,0.230469 0.246093,0.492188 0.339843,0.742188 0.04297,0.105469 0.08984,0.25 0.128907,0.359375 h 2.59375 c 0.03125,-0.09375 0.07422,-0.222656 0.109374,-0.316406 0.101563,-0.304688 0.230469,-0.609376 0.386719,-0.890626 0.339844,-0.613281 0.835938,-1.132812 1.433594,-1.496093 0.640625,-0.382813 1.367187,-0.585938 2.113281,-0.570313 0.699219,0.01563 1.375,0.222656 1.980469,0.570313 0.601563,0.351562 1.136719,0.839843 1.464844,1.449219 0.117187,0.21875 0.246093,0.554687 0.332031,0.785156 l -0.78125,0.921875 c -0.02344,-0.07422 -0.06641,-0.179688 -0.08984,-0.25 -0.05469,-0.167969 -0.265625,-0.75 -0.34375,-0.902344 -0.230468,-0.460937 -0.621094,-0.832031 -1.058594,-1.105469 -0.457031,-0.28125 -0.984374,-0.449218 -1.523437,-0.449218 -0.554687,0 -1.09375,0.183593 -1.566406,0.46875 -0.441407,0.273437 -0.828125,0.632812 -1.089844,1.085937 -0.265625,0.453125 -0.386719,0.980469 -0.40625,1.503906 -0.02344,0.53125 0.0625,1.066407 0.265625,1.554688 0.07031,0.171875 0.191406,0.410156 0.277344,0.574219 h -5.824219 c 0.05859,-0.08594 0.144531,-0.222657 0.195313,-0.308594 0.128906,-0.203125 0.273437,-0.445313 0.359374,-0.664063 C 49.75,26 49.808594,25.605469 49.792969,25.214844 49.78125,24.726562 49.65625,24.25 49.421875,23.832031 49.167969,23.375 48.792969,23 48.347656,22.726562 47.875,22.4375 47.335938,22.28125 46.789062,22.273438 c -0.53125,-0.0078 -1.050781,0.128906 -1.503906,0.386718 -0.460937,0.265625 -0.839844,0.65625 -1.109375,1.117188 -0.25,0.429687 -0.394531,0.921875 -0.402343,1.421875 -0.0078,0.546875 0.136718,1.085937 0.402343,1.570312 0.101563,0.164063 0.269531,0.402344 0.375,0.566407 h -6.242187 c 0.136718,-0.171876 0.332031,-0.429688 0.445312,-0.617188 0.273438,-0.453125 0.4375,-0.980469 0.429688,-1.503906 -0.0078,-0.488282 -0.171875,-0.972656 -0.414063,-1.394532 -0.261719,-0.453124 -0.621093,-0.855468 -1.074219,-1.128906 -0.453124,-0.28125 -0.976562,-0.425781 -1.511718,-0.433594 -0.550782,0 -1.097656,0.152344 -1.574219,0.441407 -0.4375,0.257812 -0.796875,0.632812 -1.0625,1.0625 -0.261719,0.4375 -0.425781,0.9375 -0.441406,1.453125 -0.0039,0.546875 0.152343,1.085937 0.453125,1.554687 0.109375,0.171875 0.304687,0.410157 0.441406,0.566407 h -5.65625 c 0.136719,-0.15625 0.339844,-0.394532 0.453125,-0.574219 0.277344,-0.4375 0.398437,-0.964844 0.382813,-1.488281 -0.01563,-0.476563 -0.148438,-0.949219 -0.375,-1.367188 -0.257813,-0.476562 -0.625,-0.878906 -1.078126,-1.152344 -0.445312,-0.273437 -0.957031,-0.417968 -1.472656,-0.4375 -0.589844,-0.01563 -1.179687,0.121094 -1.683594,0.421875 -0.445312,0.269531 -0.804687,0.644531 -1.066406,1.082031 -0.257812,0.445313 -0.410156,0.941407 -0.421875,1.453126 -0.01563,0.582031 0.136719,1.164062 0.472657,1.640624 0.09375,0.128907 0.261718,0.300782 0.367187,0.421876 h -6.019531 c 0.121094,-0.148438 0.292968,-0.378907 0.394531,-0.546876 0.265625,-0.453124 0.390625,-0.976562 0.382813,-1.5 C 18.671875,24.761719 18.535156,24.25 18.269531,23.804688 18.011719,23.367188 17.652344,23 17.210938,22.75 c -0.46875,-0.273438 -1.007813,-0.425781 -1.546876,-0.417969 -0.546874,0.0039 -1.070312,0.179688 -1.546874,0.449219 -0.429688,0.253906 -0.8125,0.601562 -1.070313,1.03125 -0.152344,0.25 -0.257813,0.523438 -0.324219,0.8125 -0.02734,0.144531 -0.05859,0.359375 -0.07813,0.503906 L 11.76562,24.402344"
       id="path5155" />
  </g>
</svg>

<?xml version="1.0" encoding="UTF-8"?>
<svg xmlns="http://www.w3.org/2000/svg" xmlns:xlink="http://www.w3.org/1999/xlink" width="69pt" height="29pt" viewBox="0 0 69 29" version="1.1">
<g id="surface1">
<path style=" stroke:none;fill-rule:nonzero;fill:rgb(13.729858%,12.159729%,12.548828%);fill-opacity:1;" d="M 3.910156 13.765625 L 22.339844 10.910156 L 58.03125 10.910156 L 68.183594 13.449219 L 68.183594 17.863281 L 67.128906 17.863281 L 67.128906 18.546875 L 59.582031 27.332031 C 59.460938 27.46875 59.273438 27.625 59.128906 27.738281 C 58.933594 27.898438 58.71875 28.042969 58.480469 28.136719 C 58.28125 28.214844 58.042969 28.265625 57.828125 28.300781 C 57.769531 28.308594 57.511719 28.34375 57.453125 28.34375 L 16.148438 28.34375 C 15.988281 28.34375 15.707031 28.34375 15.550781 28.34375 C 15.269531 28.328125 14.917969 28.300781 14.664062 28.1875 C 14.433594 28.09375 14.175781 27.875 13.996094 27.710938 C 13.988281 27.703125 13.59375 27.335938 13.585938 27.332031 L 5.199219 19.453125 L 5.199219 18.546875 L 3.910156 18.546875 L 3.910156 13.765625 "/>
<path style=" stroke:none;fill-rule:nonzero;fill:rgb(13.729858%,12.159729%,12.548828%);fill-opacity:1;" d="M 3.914062 5.074219 L 3.914062 5.726562 L 31.742188 4.324219 L 31.742188 2.691406 L 36.84375 0 L 50.164062 0 L 54.875 2.570312 L 54.875 9.992188 L 31.742188 9.992188 L 31.742188 7.855469 L 3.914062 8.144531 L 3.914062 8.921875 L 0.851562 8.921875 L 0.851562 5.074219 L 3.914062 5.074219 "/>
<path style=" stroke:none;fill-rule:nonzero;fill:rgb(100%,100%,100%);fill-opacity:1;" d="M 11.765625 24.402344 C 11.859375 24.101562 12.011719 23.660156 12.148438 23.375 C 12.464844 22.738281 12.96875 22.214844 13.566406 21.84375 C 14.191406 21.453125 14.910156 21.238281 15.644531 21.222656 C 16.398438 21.199219 17.140625 21.394531 17.785156 21.785156 C 18.378906 22.136719 18.867188 22.632812 19.203125 23.230469 C 19.363281 23.511719 19.484375 23.804688 19.570312 24.113281 C 19.59375 24.195312 19.621094 24.324219 19.644531 24.402344 L 22.160156 24.402344 C 22.1875 24.300781 22.230469 24.15625 22.269531 24.054688 C 22.359375 23.761719 22.484375 23.488281 22.640625 23.230469 C 22.996094 22.648438 23.484375 22.148438 24.066406 21.804688 C 24.726562 21.425781 25.476562 21.238281 26.238281 21.257812 C 26.945312 21.28125 27.625 21.480469 28.222656 21.84375 C 28.84375 22.214844 29.351562 22.75 29.699219 23.382812 C 29.835938 23.609375 29.933594 23.855469 30.023438 24.113281 C 30.050781 24.199219 30.085938 24.324219 30.109375 24.402344 L 31.742188 24.402344 C 31.769531 24.332031 31.804688 24.230469 31.828125 24.148438 C 31.933594 23.847656 32.070312 23.53125 32.230469 23.257812 C 32.609375 22.632812 33.179688 22.128906 33.820312 21.769531 C 34.46875 21.410156 35.199219 21.195312 35.949219 21.195312 C 36.710938 21.195312 37.460938 21.410156 38.128906 21.792969 C 38.738281 22.136719 39.292969 22.632812 39.640625 23.25 C 39.746094 23.4375 39.917969 23.882812 40.003906 24.085938 C 40.039062 24.171875 40.097656 24.316406 40.136719 24.402344 L 42.832031 24.402344 C 42.859375 24.308594 42.898438 24.164062 42.925781 24.070312 C 43.019531 23.78125 43.132812 23.511719 43.277344 23.25 C 43.632812 22.625 44.132812 22.085938 44.761719 21.726562 C 45.371094 21.382812 46.082031 21.230469 46.78125 21.238281 C 47.515625 21.242188 48.246094 21.410156 48.875 21.792969 C 49.476562 22.148438 49.960938 22.683594 50.304688 23.300781 C 50.433594 23.53125 50.550781 23.792969 50.644531 24.042969 C 50.6875 24.148438 50.734375 24.292969 50.773438 24.402344 L 53.367188 24.402344 C 53.398438 24.308594 53.441406 24.179688 53.476562 24.085938 C 53.578125 23.78125 53.707031 23.476562 53.863281 23.195312 C 54.203125 22.582031 54.699219 22.0625 55.296875 21.699219 C 55.9375 21.316406 56.664062 21.113281 57.410156 21.128906 C 58.109375 21.144531 58.785156 21.351562 59.390625 21.699219 C 59.992188 22.050781 60.527344 22.539062 60.855469 23.148438 C 60.972656 23.367188 61.101562 23.703125 61.1875 23.933594 L 60.40625 24.855469 C 60.382812 24.78125 60.339844 24.675781 60.316406 24.605469 C 60.261719 24.4375 60.050781 23.855469 59.972656 23.703125 C 59.742188 23.242188 59.351562 22.871094 58.914062 22.597656 C 58.457031 22.316406 57.929688 22.148438 57.390625 22.148438 C 56.835938 22.148438 56.296875 22.332031 55.824219 22.617188 C 55.382812 22.890625 54.996094 23.25 54.734375 23.703125 C 54.46875 24.15625 54.347656 24.683594 54.328125 25.207031 C 54.304688 25.738281 54.390625 26.273438 54.59375 26.761719 C 54.664062 26.933594 54.785156 27.171875 54.871094 27.335938 L 49.046875 27.335938 C 49.105469 27.25 49.191406 27.113281 49.242188 27.027344 C 49.371094 26.824219 49.515625 26.582031 49.601562 26.363281 C 49.75 26 49.808594 25.605469 49.792969 25.214844 C 49.78125 24.726562 49.65625 24.25 49.421875 23.832031 C 49.167969 23.375 48.792969 23 48.347656 22.726562 C 47.875 22.4375 47.335938 22.28125 46.789062 22.273438 C 46.257812 22.265625 45.738281 22.402344 45.285156 22.660156 C 44.824219 22.925781 44.445312 23.316406 44.175781 23.777344 C 43.925781 24.207031 43.78125 24.699219 43.773438 25.199219 C 43.765625 25.746094 43.910156 26.285156 44.175781 26.769531 C 44.277344 26.933594 44.445312 27.171875 44.550781 27.335938 L 38.308594 27.335938 C 38.445312 27.164062 38.640625 26.90625 38.753906 26.71875 C 39.027344 26.265625 39.191406 25.738281 39.183594 25.214844 C 39.175781 24.726562 39.011719 24.242188 38.769531 23.820312 C 38.507812 23.367188 38.148438 22.964844 37.695312 22.691406 C 37.242188 22.410156 36.71875 22.265625 36.183594 22.257812 C 35.632812 22.257812 35.085938 22.410156 34.609375 22.699219 C 34.171875 22.957031 33.8125 23.332031 33.546875 23.761719 C 33.285156 24.199219 33.121094 24.699219 33.105469 25.214844 C 33.101562 25.761719 33.257812 26.300781 33.558594 26.769531 C 33.667969 26.941406 33.863281 27.179688 34 27.335938 L 28.34375 27.335938 C 28.480469 27.179688 28.683594 26.941406 28.796875 26.761719 C 29.074219 26.324219 29.195312 25.796875 29.179688 25.273438 C 29.164062 24.796875 29.03125 24.324219 28.804688 23.90625 C 28.546875 23.429688 28.179688 23.027344 27.726562 22.753906 C 27.28125 22.480469 26.769531 22.335938 26.253906 22.316406 C 25.664062 22.300781 25.074219 22.4375 24.570312 22.738281 C 24.125 23.007812 23.765625 23.382812 23.503906 23.820312 C 23.246094 24.265625 23.09375 24.761719 23.082031 25.273438 C 23.066406 25.855469 23.21875 26.4375 23.554688 26.914062 C 23.648438 27.042969 23.816406 27.214844 23.921875 27.335938 L 17.902344 27.335938 C 18.023438 27.1875 18.195312 26.957031 18.296875 26.789062 C 18.5625 26.335938 18.6875 25.8125 18.679688 25.289062 C 18.671875 24.761719 18.535156 24.25 18.269531 23.804688 C 18.011719 23.367188 17.652344 23 17.210938 22.75 C 16.742188 22.476562 16.203125 22.324219 15.664062 22.332031 C 15.117188 22.335938 14.59375 22.511719 14.117188 22.78125 C 13.6875 23.035156 13.304688 23.382812 13.046875 23.8125 C 12.894531 24.0625 12.789062 24.335938 12.722656 24.625 C 12.695312 24.769531 12.664062 24.984375 12.644531 25.128906 L 11.765625 24.402344 "/>
</g>
</svg>
